Papirus-nordic/48x48/places/folder-nordic-pcloud.svg

<svg xmlns="http://www.w3.org/2000/svg" width="48" height="48" version="1"><rect width="40" height="26" x="4" y="17" rx="2" ry="2" opacity=".2"/><path d="M4 34c0 1.108.892 2 2 2h36c1.108 0 2-.892 2-2V12c0-1.108-.892-2-2-2H22V8c0-1.108-.892-2-2-2H6c-1.108 0-2 .892-2 2" fill="#6c9b9a"/><rect width="40" height="26" x="4" y="15" rx="2" ry="2" opacity=".2"/><rect width="36" height="16" x="6" y="13" rx="2" ry="2" fill="#e4e4e4"/><rect width="40" height="26" x="4" y="16" rx="2" ry="2" fill="#82abaa"/><path d="M6 6c-1.108 0-2 .892-2 2v1c0-1.108.892-2 2-2h14c1.108 0 2 .892 2 2V8c0-1.108-.892-2-2-2zm16 4v1h20c1.108 0 2 .892 2 2v-1c0-1.108-.892-2-2-2z" opacity=".1" fill="#fff"/><path d="M24.5 22a6.5 6.5 0 0 0-6.01 4.031A5 5 0 0 0 14 31a5 5 0 0 0 5 5h11.75A3.25 3.25 0 0 0 34 32.75a3.237 3.237 0 0 0-1.691-2.836A3 3 0 0 0 33 28a3 3 0 0 0-3-3 3 3 0 0 0-.023 0 6.5 6.5 0 0 0-5.477-3zm0 2a4.5 4.5 0 0 1 4.5 4.5 4.5 4.5 0 0 1-4.5 4.5 4.5 4.5 0 0 1-4.5-4.5 4.5 4.5 0 0 1 4.5-4.5zm0 1a3.5 3.5 0 0 0-3.5 3.5 3.5 3.5 0 0 0 3.5 3.5 3.5 3.5 0 0 0 3.5-3.5 3.5 3.5 0 0 0-3.5-3.5zM23 26h2.5a1.5 1.5 0 0 1 1.5 1.5 1.5 1.5 0 0 1-1.5 1.5H24v2h-1v-2zm1 1v1h1.5a.5.5 0 0 0 .5-.5.5.5 0 0 0-.5-.5z" fill="#4e6766"/></svg>

<svg xmlns="http://www.w3.org/2000/svg" width="48" height="48" version="1">
 <rect style="opacity:0.2" width="40" height="26" x="4" y="17" rx="2" ry="2"/>
 <path style="fill:#6c9b9a" d="M 4,34 C 4,35.108 4.892,36 6,36 H 42 C 43.108,36 44,35.108 44,34 V 12 C 44,10.892 43.108,10 42,10 H 22 V 8 C 22,6.892 21.108,6 20,6 H 6 C 4.892,6 4,6.892 4,8"/>
 <rect style="opacity:0.2" width="40" height="26" x="4" y="15" rx="2" ry="2"/>
 <rect style="fill:#e4e4e4" width="36" height="16" x="6" y="13" rx="2" ry="2"/>
 <rect style="fill:#82abaa" width="40" height="26" x="4" y="16" rx="2" ry="2"/>
 <path style="opacity:0.1;fill:#ffffff" d="M 6,6 C 4.892,6 4,6.892 4,8 V 9 C 4,7.892 4.892,7 6,7 H 20 C 21.108,7 22,7.892 22,9 V 8 C 22,6.892 21.108,6 20,6 Z M 22,10 V 11 H 42 C 43.108,11 44,11.892 44,13 V 12 C 44,10.892 43.108,10 42,10 Z"/>
 <path style="fill:#4e6766" d="M 24.5,22 A 6.5,6.5 0 0 0 18.490235,26.03125 5,5 0 0 0 14,31 5,5 0 0 0 19,36 H 30.75 C 32.544925,36 34,34.544925 34,32.75 34,31.523022 33.312228,30.467196 32.308594,29.914062 A 3,3 0 0 0 33,28 3,3 0 0 0 30,25 3,3 0 0 0 29.97656,25 6.5,6.5 0 0 0 24.499998,22 Z m 0,2 A 4.5,4.5 0 0 1 29,28.5 4.5,4.5 0 0 1 24.5,33 4.5,4.5 0 0 1 20,28.5 4.5,4.5 0 0 1 24.5,24 Z m 0,1 A 3.5,3.5 0 0 0 21,28.5 3.5,3.5 0 0 0 24.5,32 3.5,3.5 0 0 0 28,28.5 3.5,3.5 0 0 0 24.5,25 Z M 23,26 h 1 1.5 A 1.5,1.5 0 0 1 27,27.5 1.5,1.5 0 0 1 25.5,29 H 24 v 2 h -1 v -2 z m 1,1 v 1 h 1.5 A 0.5,0.5 0 0 0 26,27.5 0.5,0.5 0 0 0 25.5,27 Z"/>
</svg>
